X:1
T:Magic Potatos
M:C|
L:1/8
Q:210
C:(c) Greg Anderson, 17 Jan 2000
R:Reel
H:A favorite dish at our house
K:Em
B,|:EFGF EGBG|AGFG E2 B,2|edBA GF E2|FE D2 B,3 B,|
EFGF EGBG|AGFG E2 B,2|edBA BAGF|1E6 GF:|2E6 FE
|:DEFA d^cBA|Bgfg eBGE|FGAB AGFA|GBFB EGFE|DEFA d^cBA|
Bdef g2 fg|(3agf ge f2 eB|1GBFB E2 FE:|2dAFD E2 GF||
